X: 30372
T: Old Pigeon On The Gate, The
R: reel
M: 4/4
K: Gmixolydian
g=f|:dG ~G2 d=f ec|((3ded) ^c=f d=c AG|=F3 =f cF AG|=F=f df cF Ac|
dG ~G2 d=f ec|((3ded) ^c=f d=c AG|=Fc Ac =fa ge|=fd cA G2 gf:|
|:dg gd ga gf|dg ~g2 bg gf|dc cB ca ge|((3=fgf) eg fg eg|
dg gd ga gf|dg ~g2 bg gf|dc cB ca ge|1 =fd cA G2 gf:|2 =fdcA G4||

